X: 1296
T: Bob's Polka
B: australian traditional tunes wiki
M:2/4
L:1/8
R: Polka
Q: 1/4=100
K:D
V:1 
"D"fA d>e|"A"d.c .cz|gB e>f|"D"e.d .dz|fA d>e|"A"d.c .cz|gB e>f|e"D"d d/c/d/e/|
"D"fA d>e|"A"d.c .cz|gB e>f|"D"e.d .dz|fA d>e|"A"d.c .cz|gB e>f|e"D"d dz||
"D"F3A|"G"B>A "D"FA|"D"d2"A"e>d|"D"d"A".c .cz|"A"E3F|G3z/c/|cB E>G|"D"F2D2|
"D"A3A|"G"B>A "D"FA|d2"A"e>d|dc/c/ cB/B/ |BA/A/ "A7" AG/G/|GF/F/ "D"AA|fe "A"B>c|"D"d.d .dz||
% abcbook-tune_id 6342d53ae9d77256292f207c


% abcbook-boost 0
% abcbook-tablature 
% abcbook-transpose 
% abcbook-lastupdated 1665324357873
% abcbook-soundfonts 
% abcbook-repeats 1
% NFF Book 2022
% Bush Traditions recording played by Ian Hayden

